svg/data1/alien.svg

<?xml version="1.0" encoding="UTF-8" standalone="no"?>
<svg
   xmlns:dc="http://purl.org/dc/elements/1.1/"
   xmlns:cc="http://creativecommons.org/ns#"
   xmlns:rdf="http://www.w3.org/1999/02/22-rdf-syntax-ns#"
   xmlns:svg="http://www.w3.org/2000/svg"
   xmlns="http://www.w3.org/2000/svg"
   xmlns:sodipodi="http://sodipodi.sourceforge.net/DTD/sodipodi-0.dtd"
   xmlns:inkscape="http://www.inkscape.org/namespaces/inkscape"
   version="1.0"
   width="900"
   height="900"
   viewBox="0 0 900 900"
   xml:space="preserve"
   id="svg838"
   sodipodi:docname="alien.svg"
   inkscape:version="1.0.1 (c497b03c, 2020-09-10)"><metadata
   id="metadata842"><rdf:RDF><cc:Work
       rdf:about=""><dc:format>image/svg+xml</dc:format><dc:type
         rdf:resource="http://purl.org/dc/dcmitype/StillImage" /><dc:title></dc:title></cc:Work></rdf:RDF></metadata><sodipodi:namedview
   pagecolor="#ffffff"
   bordercolor="#666666"
   borderopacity="1"
   objecttolerance="10"
   gridtolerance="10"
   guidetolerance="10"
   inkscape:pageopacity="0"
   inkscape:pageshadow="2"
   inkscape:window-width="1268"
   inkscape:window-height="773"
   id="namedview840"
   showgrid="false"
   inkscape:zoom="0.48820061"
   inkscape:cx="210.19306"
   inkscape:cy="366.02464"
   inkscape:window-x="0"
   inkscape:window-y="25"
   inkscape:window-maximized="0"
   inkscape:current-layer="svg838" /><defs
   id="defs11" />
<g
   transform="matrix(1.0192525,0,0,1.0192525,70.086071,-8.6636462)"
   fill="currentColor"
   >
	<path fill="currentColor" 
   d="M 375,8.5 C 226.5,8.5 21.5,102.2 21.5,346 c 0,0.8 0,1.7 0,2.5 1.7,242.7 248.6,543 353.5,543 C 480.3,891.5 728.5,589.8 728.5,346 728.5,102.2 523.5,8.5 375,8.5 Z m -318,359 c 173,0 298,122 298,305 -181,0 -298,-117 -298,-305 z m 642,0 c 0,188 -119.4,305 -304,305 0,-183 127.5,-305 304,-305 z"
   id="path834"
   style="fill-opacity:1" />
</g>
</svg>

<?xml version="1.0" encoding="UTF-8" standalone="no"?>
<!-- Created with Inkscape (http://www.inkscape.org/) -->
<svg
   xmlns:svg="http://www.w3.org/2000/svg"
   xmlns="http://www.w3.org/2000/svg"
   version="1.0"
   width="750"
   height="900"
   viewBox="0 0 750 900"
   id="Layer_1"
   xml:space="preserve"><defs
   id="defs11" />
<g
   id="Layer_2">
	<path
   d="M 375,8.5 C 226.5,8.5 21.5,102.2 21.5,346 C 21.5,346.8 21.5,347.7 21.5,348.5 C 23.2,591.2 270.1,891.5 375,891.5 C 480.3,891.5 728.5,589.8 728.5,346 C 728.5,102.2 523.5,8.5 375,8.5 z M 57,367.5 C 230,367.5 355,489.5 355,672.5 C 174,672.5 57,555.5 57,367.5 z M 699,367.5 C 699,555.5 579.6,672.5 395,672.5 C 395,489.5 522.5,367.5 699,367.5 z"
   id="path4" />
	
	
</g>
</svg>
